X: 1
P: Posadh peathar in bain
C: from Liz Donaldson, from David Knight
C: arr. T. Traub 4-27-2003
M: 6/8
R: jig
K: D
L: 1/8
|: A|"D"F2 D DED |"G"dcB "D"A2 G|"D"F2 D "Bm" DEF|"Em"G2 F "A"E2 A|"D"F2 D DED|"G"dcB "A"A2 G|"D"F2 D "C"E=CE|"D"D3 D2 :|
|: A,|"D"D2 E F2 F|G2 F F2 F|"Em"G2 F "A"EFG|"D"A2 D D2 A|"G"B2 c dcB |"D"A2 G F2 d|"D"F2 D "C"E=CE|"D"D3 D2 :|
